icons/desktop/16/autoplay-slash-16.svg

<svg width="16" height="16" viewBox="0 0 16 16" fill="none" xmlns="http://www.w3.org/2000/svg">
<path fill-rule="evenodd" clip-rule="evenodd" d="M0.220158 1.21973C0.513064 0.926986 0.987863 0.926884 1.28071 1.21973L2.39203 2.33105L2.39301 2.33008L3.46039 3.39746L3.45942 3.39844L12.6225 12.5615H12.6245L13.685 13.6221H13.683L14.7807 14.7197C15.0734 15.0126 15.0734 15.4874 14.7807 15.7803C14.4879 16.0731 14.0131 16.073 13.7202 15.7803L12.5288 14.5889C10.7739 15.7993 8.51541 16.3291 6.13617 15.7881C3.63923 15.2201 1.52938 13.4151 0.587346 11.0342C-0.474362 8.35026 -0.0217266 5.58156 1.42524 3.48535L0.220158 2.28027C-0.072735 1.98738 -0.072735 1.51262 0.220158 1.21973ZM2.51215 4.57227C1.65522 5.92296 1.29072 7.58106 1.62543 9.27441C2.23156 12.3361 5.07899 14.5908 8.19867 14.4971C9.38918 14.4613 10.4997 14.1025 11.4467 13.5068L8.31684 10.377L7.45453 10.8701C6.80959 11.2391 6.00545 10.7732 6.00531 10.0293V8.06543L2.51215 4.57227Z" fill="black"/>
<path d="M8.85199 0.0449219C12.864 0.470921 16.0004 3.87602 16.0004 8C16.0004 9.739 15.4327 11.3422 14.4877 12.6562L13.4184 11.5859C14.1013 10.557 14.5004 9.32492 14.5004 8C14.5004 4.63502 11.9289 1.85923 8.64887 1.53223C8.27599 1.49511 8.00043 1.16691 8.00043 0.791992C8.00046 0.338062 8.40107 -0.0029892 8.85199 0.0449219Z" fill="black"/>
<path d="M6.8393 5.01758C7.04123 4.98763 7.25461 5.01495 7.45453 5.12891L11.0073 7.15918C11.658 7.53023 11.658 8.4688 11.0073 8.84082L10.7885 8.96582L6.8393 5.01758Z" fill="black"/>
<path d="M5.50043 0C5.7763 0.00016002 6.00043 0.224099 6.00043 0.5V3.99902C6.00042 4.04896 5.97341 4.084 5.96039 4.12793L1.8725 0.0400391C1.91635 0.0279894 1.95153 0 2.00141 0H5.50043Z" fill="black"/>
</svg>

<!-- This Source Code Form is subject to the terms of the Mozilla Public
   - License, v. 2.0. If a copy of the MPL was not distributed with this
   - file, You can obtain one at http://mozilla.org/MPL/2.0/. -->
<svg xmlns="http://www.w3.org/2000/svg" width="16" height="16" fill="context-fill" fill-opacity="context-fill-opacity" viewBox="0 0 16 16">
    <path fill-rule="evenodd" d="M.22 1.22a.75.75 0 0 1 1.06 0l1.113 1.11h.001L3.46 3.396v.001l9.163 9.164h.002l1.06 1.06h-.002l1.098 1.098a.75.75 0 0 1-1.06 1.06l-1.192-1.191c-1.755 1.21-4.014 1.74-6.393 1.2a7.9 7.9 0 0 1-5.549-4.755c-1.061-2.684-.609-5.452.838-7.549L.22 2.28a.75.75 0 0 1 0-1.06m2.292 3.352a6.4 6.4 0 0 0-.887 4.702c.607 3.062 3.454 5.317 6.574 5.223a6.45 6.45 0 0 0 3.248-.99l-3.13-3.13-.862.493a.97.97 0 0 1-1.45-.84V8.064z" clip-rule="evenodd" />
    <path d="M8.852.045C12.864.47 16 3.876 16 8a7.95 7.95 0 0 1-1.512 4.656l-1.07-1.07A6.46 6.46 0 0 0 14.5 8c0-3.365-2.571-6.14-5.851-6.468A.736.736 0 0 1 8 .792a.76.76 0 0 1 .852-.747" />
    <path d="M6.84 5.018a.94.94 0 0 1 .615.11l3.552 2.031a.968.968 0 0 1 0 1.682l-.218.125zM5.5 0a.5.5 0 0 1 .5.5v3.499c0 .05-.027.085-.04.129L1.873.04C1.916.028 1.952 0 2 0z" />
</svg>
